X: 1
T: Easter Sunday
R: reel
M: 4/4
L: 1/8
K: Amin
|:G|EAAB cBcA|BG~G2 BcdB|AEAB cBce|dBGA BA~A2|
EAAB cBce|dB~B2 gedg|eaaf ~g2 ab|1 gedB A3:|2 gedB A2||
|:Bd|eaag edBA|BG~G2 BcdB|ABcd eaaf|~g2 fa gedg|
ea ~a2 bg~ g2|aged BedB|AGEF GABd|1 gedB A2:|2 gedB A3||

composer: Paddy O'Brien
